X:1
T: Jig in G Minor
C: Jeremy Groom
M:6/8
L:1/8
K:Bbmaj
"Gm"dGG cGG|"Cm7"BGG AGG|"Bb"DFG ABA|"Gm"G2F D2D|
dGG cGG|"Cm7"BGG AGG|"Bb"DFG ABA|"Gm"G2F G2G:|
ddd g2g|"Bb"f2~f d2d|"Cm"c2c e2~c|"Bb"dcB "F"cBA|
"Gm"d2d g2g|"Bb"f2~f d2d|"Cm"edc "Bb"dcB|"F"ABA "Gm"G2G|
ddd g2g|"Dm"a2f "Gm"g2g|"F"f2f "C"=e2e|f=ed edc|
"Gm"d2d g2g|"Bb"f2~f d2d|"Cm"edc "Bb"dcB|"F"ABA "Gm"G3|]

